bernoullicharts/2014_add_x_0_1_mean.svg

<?xml version="1.0" encoding="utf-8" standalone="no"?>
<!DOCTYPE svg PUBLIC "-//W3C//DTD SVG 1.1//EN"
  "http://www.w3.org/Graphics/SVG/1.1/DTD/svg11.dtd">
<!-- Created with matplotlib (https://matplotlib.org/) -->
<svg height="345.6pt" version="1.1" viewBox="0 0 460.8 345.6" width="460.8pt" xmlns="http://www.w3.org/2000/svg" xmlns:xlink="http://www.w3.org/1999/xlink">
 <defs>
  <style type="text/css">
*{stroke-linecap:butt;stroke-linejoin:round;}
  </style>
 </defs>
 <g id="figure_1">
  <g id="patch_1">
   <path d="M 0 345.6 
L 460.8 345.6 
L 460.8 0 
L 0 0 
z
" style="fill:#ffffff;"/>
  </g>
  <g id="axes_1">
   <g id="patch_2">
    <path d="M 57.6 307.584 
L 414.72 307.584 
L 414.72 41.472 
L 57.6 41.472 
z
" style="fill:#ffffff;"/>
   </g>
   <g id="matplotlib.axis_1">
    <g id="xtick_1">
     <g id="line2d_1">
      <defs>
       <path d="M 0 0 
L 0 3.5 
" id="mfa7c7300f9" style="stroke:#000000;stroke-width:0.8;"/>
      </defs>
      <g>
       <use style="stroke:#000000;stroke-width:0.8;" x="73.796607" xlink:href="#mfa7c7300f9" y="307.584"/>
      </g>
     </g>
     <g id="text_1">
      <text style="font-family:DejaVu Sans;font-size:10px;font-style:normal;font-weight:normal;text-anchor:middle;" transform="rotate(-0, 73.796607, 322.182437)" x="73.796607" y="322.182437">0.0</text>
     </g>
    </g>
    <g id="xtick_2">
     <g id="line2d_2">
      <g>
       <use style="stroke:#000000;stroke-width:0.8;" x="146.037572" xlink:href="#mfa7c7300f9" y="307.584"/>
      </g>
     </g>
     <g id="text_2">
      <text style="font-family:DejaVu Sans;font-size:10px;font-style:normal;font-weight:normal;text-anchor:middle;" transform="rotate(-0, 146.037572, 322.182437)" x="146.037572" y="322.182437">0.2</text>
     </g>
    </g>
    <g id="xtick_3">
     <g id="line2d_3">
      <g>
       <use style="stroke:#000000;stroke-width:0.8;" x="218.278537" xlink:href="#mfa7c7300f9" y="307.584"/>
      </g>
     </g>
     <g id="text_3">
      <text style="font-family:DejaVu Sans;font-size:10px;font-style:normal;font-weight:normal;text-anchor:middle;" transform="rotate(-0, 218.278537, 322.182437)" x="218.278537" y="322.182437">0.4</text>
     </g>
    </g>
    <g id="xtick_4">
     <g id="line2d_4">
      <g>
       <use style="stroke:#000000;stroke-width:0.8;" x="290.519502" xlink:href="#mfa7c7300f9" y="307.584"/>
      </g>
     </g>
     <g id="text_4">
      <text style="font-family:DejaVu Sans;font-size:10px;font-style:normal;font-weight:normal;text-anchor:middle;" transform="rotate(-0, 290.519502, 322.182437)" x="290.519502" y="322.182437">0.6</text>
     </g>
    </g>
    <g id="xtick_5">
     <g id="line2d_5">
      <g>
       <use style="stroke:#000000;stroke-width:0.8;" x="362.760467" xlink:href="#mfa7c7300f9" y="307.584"/>
      </g>
     </g>
     <g id="text_5">
      <text style="font-family:DejaVu Sans;font-size:10px;font-style:normal;font-weight:normal;text-anchor:middle;" transform="rotate(-0, 362.760467, 322.182437)" x="362.760467" y="322.182437">0.8</text>
     </g>
    </g>
    <g id="text_6">
     <text style="font-family:DejaVu Sans;font-size:10px;font-style:normal;font-weight:normal;text-anchor:middle;" transform="rotate(-0, 236.16, 335.860562)" x="236.16" y="335.860562">Input Coin's Heads Probability (λ)</text>
    </g>
   </g>
   <g id="matplotlib.axis_2">
    <g id="ytick_1">
     <g id="line2d_6">
      <defs>
       <path d="M 0 0 
L -3.5 0 
" id="m0ed9a9dafa" style="stroke:#000000;stroke-width:0.8;"/>
      </defs>
      <g>
       <use style="stroke:#000000;stroke-width:0.8;" x="57.6" xlink:href="#m0ed9a9dafa" y="262.984206"/>
      </g>
     </g>
     <g id="text_7">
      <text style="font-family:DejaVu Sans;font-size:10px;font-style:normal;font-weight:normal;text-anchor:end;" transform="rotate(-0, 50.6, 266.783425)" x="50.6" y="266.783425">0.2</text>
     </g>
    </g>
    <g id="ytick_2">
     <g id="line2d_7">
      <g>
       <use style="stroke:#000000;stroke-width:0.8;" x="57.6" xlink:href="#m0ed9a9dafa" y="210.558731"/>
      </g>
     </g>
     <g id="text_8">
      <text style="font-family:DejaVu Sans;font-size:10px;font-style:normal;font-weight:normal;text-anchor:end;" transform="rotate(-0, 50.6, 214.35795)" x="50.6" y="214.35795">0.4</text>
     </g>
    </g>
    <g id="ytick_3">
     <g id="line2d_8">
      <g>
       <use style="stroke:#000000;stroke-width:0.8;" x="57.6" xlink:href="#m0ed9a9dafa" y="158.133257"/>
      </g>
     </g>
     <g id="text_9">
      <text style="font-family:DejaVu Sans;font-size:10px;font-style:normal;font-weight:normal;text-anchor:end;" transform="rotate(-0, 50.6, 161.932475)" x="50.6" y="161.932475">0.6</text>
     </g>
    </g>
    <g id="ytick_4">
     <g id="line2d_9">
      <g>
       <use style="stroke:#000000;stroke-width:0.8;" x="57.6" xlink:href="#m0ed9a9dafa" y="105.707782"/>
      </g>
     </g>
     <g id="text_10">
      <text style="font-family:DejaVu Sans;font-size:10px;font-style:normal;font-weight:normal;text-anchor:end;" transform="rotate(-0, 50.6, 109.507001)" x="50.6" y="109.507001">0.8</text>
     </g>
    </g>
    <g id="ytick_5">
     <g id="line2d_10">
      <g>
       <use style="stroke:#000000;stroke-width:0.8;" x="57.6" xlink:href="#m0ed9a9dafa" y="53.282308"/>
      </g>
     </g>
     <g id="text_11">
      <text style="font-family:DejaVu Sans;font-size:10px;font-style:normal;font-weight:normal;text-anchor:end;" transform="rotate(-0, 50.6, 57.081526)" x="50.6" y="57.081526">1.0</text>
     </g>
    </g>
    <g id="text_12">
     <text style="font-family:DejaVu Sans;font-size:10px;font-style:normal;font-weight:normal;text-anchor:middle;" transform="rotate(-90, 28.617187, 174.528)" x="28.617187" y="174.528">Simulated Mean / Function Value</text>
    </g>
   </g>
   <g id="line2d_11">
    <path clip-path="url(#p53082868c1)" d="M 73.832727 289.17073 
L 77.480531 286.523509 
L 81.128335 283.876287 
L 84.776139 281.229065 
L 88.423943 278.581844 
L 92.071747 275.934622 
L 95.719551 273.2874 
L 99.367354 270.640178 
L 103.015158 267.992957 
L 106.662962 265.345735 
L 110.310766 262.698513 
L 113.95857 260.051292 
L 117.606374 257.40407 
L 121.254178 254.756848 
L 124.901982 252.109627 
L 128.549785 249.462405 
L 132.197589 246.815183 
L 135.845393 244.167962 
L 139.493197 241.52074 
L 143.141001 238.873518 
L 146.788805 236.226297 
L 150.436609 233.579075 
L 154.084413 230.931853 
L 157.732217 228.284631 
L 161.38002 225.63741 
L 165.027824 222.990188 
L 168.675628 220.342966 
L 172.323432 217.695745 
L 175.971236 215.048523 
L 179.61904 212.401301 
L 183.266844 209.75408 
L 186.914648 207.106858 
L 190.562451 204.459636 
L 194.210255 201.812415 
L 197.858059 199.165193 
L 201.505863 196.517971 
L 205.153667 193.87075 
L 208.801471 191.223528 
L 212.449275 188.576306 
L 216.097079 185.929084 
L 219.744883 183.281863 
L 223.392686 180.634641 
L 227.04049 177.987419 
L 230.688294 175.340198 
L 234.336098 172.692976 
L 237.983902 170.045754 
L 241.631706 167.398533 
L 245.27951 164.751311 
L 248.927314 162.104089 
L 252.575117 159.456868 
L 256.222921 156.809646 
L 259.870725 154.162424 
L 263.518529 151.515202 
L 267.166333 148.867981 
L 270.814137 146.220759 
L 274.461941 143.573537 
L 278.109745 140.926316 
L 281.757549 138.279094 
L 285.405352 135.631872 
L 289.053156 132.984651 
L 292.70096 130.337429 
L 296.348764 127.690207 
L 299.996568 125.042986 
L 303.644372 122.395764 
L 307.292176 119.748542 
L 310.93998 117.101321 
L 314.587783 114.454099 
L 318.235587 111.806877 
L 321.883391 109.159655 
L 325.531195 106.512434 
L 329.178999 103.865212 
L 332.826803 101.21799 
L 336.474607 98.570769 
L 340.122411 95.923547 
L 343.770215 93.276325 
L 347.418018 90.629104 
L 351.065822 87.981882 
L 354.713626 85.33466 
L 358.36143 82.687439 
L 362.009234 80.040217 
L 365.657038 77.392995 
L 369.304842 74.745774 
L 372.952646 72.098552 
L 376.600449 69.45133 
L 380.248253 66.804108 
L 383.896057 64.156887 
L 387.543861 61.509665 
L 391.191665 58.862443 
L 394.839469 56.215222 
L 398.487273 53.568 
" style="fill:none;stroke:#1f77b4;stroke-linecap:square;stroke-width:1.5;"/>
   </g>
   <g id="line2d_12">
    <path clip-path="url(#p53082868c1)" d="M 73.832727 291.293962 
L 77.480531 285.002905 
L 81.128335 278.711848 
L 84.776139 282.381631 
L 88.423943 279.236103 
L 92.071747 274.51781 
L 95.719551 279.236103 
L 99.367354 273.469301 
L 103.015158 268.226753 
L 106.662962 265.60548 
L 110.310766 257.217404 
L 113.95857 260.362932 
L 117.606374 256.693149 
L 121.254178 256.693149 
L 124.901982 250.402092 
L 128.549785 253.023366 
L 132.197589 257.741658 
L 135.845393 239.916997 
L 139.493197 239.916997 
L 143.141001 234.67445 
L 146.788805 232.053176 
L 150.436609 237.819978 
L 154.084413 231.004666 
L 157.732217 234.67445 
L 161.38002 228.383393 
L 165.027824 226.286374 
L 168.675628 213.70426 
L 172.323432 213.180005 
L 175.971236 212.65575 
L 179.61904 217.374043 
L 183.266844 204.791929 
L 186.914648 200.073636 
L 190.562451 203.74342 
L 194.210255 197.452363 
L 197.858059 189.588541 
L 201.505863 191.161306 
L 205.153667 203.74342 
L 208.801471 180.676211 
L 212.449275 185.394503 
L 216.097079 184.870249 
L 219.744883 174.385154 
L 223.392686 176.482173 
L 227.04049 170.715371 
L 230.688294 173.336644 
L 234.336098 167.569842 
L 237.983902 163.900059 
L 241.631706 170.191116 
L 245.27951 170.191116 
L 248.927314 156.036238 
L 252.575117 157.084747 
L 256.222921 154.463473 
L 259.870725 156.560492 
L 263.518529 153.414964 
L 267.166333 153.414964 
L 270.814137 158.133257 
L 274.461941 141.88136 
L 278.109745 143.454124 
L 281.757549 135.590303 
L 285.405352 136.638812 
L 289.053156 131.396265 
L 292.70096 134.017538 
L 296.348764 131.920519 
L 299.996568 127.202227 
M 307.292176 121.959679 
M 314.587783 119.338406 
L 318.235587 104.135018 
L 321.883391 115.144368 
L 325.531195 108.329056 
M 343.770215 95.222687 
" style="fill:none;stroke:#ff7f0e;stroke-linecap:square;stroke-width:1.5;"/>
   </g>
   <g id="line2d_13">
    <path clip-path="url(#p53082868c1)" d="M 73.832727 290.245453 
L 77.480531 295.488 
L 81.128335 286.051415 
L 84.776139 276.614829 
L 88.423943 279.760358 
L 92.071747 285.002905 
L 95.719551 266.653989 
L 99.367354 266.653989 
L 103.015158 262.459951 
L 106.662962 266.129734 
L 110.310766 260.887187 
L 113.95857 262.984206 
L 117.606374 258.790168 
L 121.254178 248.305073 
L 124.901982 246.732309 
L 128.549785 250.402092 
L 132.197589 248.305073 
L 135.845393 247.256563 
L 139.493197 247.780818 
L 143.141001 233.101685 
L 146.788805 231.004666 
L 150.436609 232.577431 
L 154.084413 229.431902 
L 157.732217 223.140845 
L 161.38002 231.528921 
L 165.027824 225.237864 
L 168.675628 232.053176 
L 172.323432 214.752769 
L 175.971236 212.131495 
L 179.61904 211.607241 
L 183.266844 215.277024 
L 186.914648 210.558731 
L 190.562451 201.646401 
L 194.210255 205.840439 
L 197.858059 189.064287 
L 201.505863 210.034477 
L 205.153667 195.879598 
L 208.801471 189.588541 
L 212.449275 170.191116 
L 216.097079 186.967268 
L 219.744883 192.73407 
L 223.392686 183.821739 
L 227.04049 179.103447 
L 230.688294 174.385154 
L 234.336098 174.909409 
L 237.983902 174.909409 
L 241.631706 166.521333 
L 245.27951 163.900059 
L 248.927314 172.81239 
L 252.575117 156.036238 
L 256.222921 162.327295 
L 259.870725 150.79369 
L 263.518529 151.8422 
L 267.166333 137.163067 
L 270.814137 139.260086 
L 274.461941 146.599652 
L 278.109745 145.026888 
L 281.757549 142.405614 
L 285.405352 134.541793 
L 289.053156 132.969029 
L 292.70096 136.638812 
L 296.348764 122.483934 
L 299.996568 125.105208 
L 303.644372 125.105208 
M 310.93998 119.86266 
M 321.883391 108.329056 
" style="fill:none;stroke:#2ca02c;stroke-linecap:square;stroke-width:1.5;"/>
   </g>
   <g id="line2d_14">
    <path clip-path="url(#p53082868c1)" d="M 143.141001 237.295723 
M 150.436609 226.810628 
M 157.732217 221.568081 
L 161.38002 231.528921 
L 165.027824 219.995317 
M 172.323432 222.092336 
L 175.971236 207.413203 
M 183.266844 213.70426 
L 186.914648 214.752769 
L 190.562451 206.364693 
L 194.210255 199.549382 
L 197.858059 202.69491 
L 201.505863 182.248975 
L 205.153667 184.870249 
L 208.801471 189.064287 
M 216.097079 184.345994 
L 219.744883 186.967268 
M 230.688294 164.948568 
M 237.983902 173.336644 
L 241.631706 172.288135 
M 252.575117 154.463473 
" style="fill:none;stroke:#d62728;stroke-linecap:square;stroke-width:1.5;"/>
   </g>
   <g id="patch_3">
    <path d="M 57.6 307.584 
L 57.6 41.472 
" style="fill:none;stroke:#000000;stroke-linecap:square;stroke-linejoin:miter;stroke-width:0.8;"/>
   </g>
   <g id="patch_4">
    <path d="M 414.72 307.584 
L 414.72 41.472 
" style="fill:none;stroke:#000000;stroke-linecap:square;stroke-linejoin:miter;stroke-width:0.8;"/>
   </g>
   <g id="patch_5">
    <path d="M 57.6 307.584 
L 414.72 307.584 
" style="fill:none;stroke:#000000;stroke-linecap:square;stroke-linejoin:miter;stroke-width:0.8;"/>
   </g>
   <g id="patch_6">
    <path d="M 57.6 41.472 
L 414.72 41.472 
" style="fill:none;stroke:#000000;stroke-linecap:square;stroke-linejoin:miter;stroke-width:0.8;"/>
   </g>
   <g id="text_13">
    <text style="font-family:DejaVu Sans;font-size:12px;font-style:normal;font-weight:normal;text-anchor:middle;" transform="rotate(-0, 236.16, 35.472)" x="236.16" y="35.472">Expected Value in 2014 Add. x+0.1 Algorithm</text>
   </g>
   <g id="legend_1">
    <g id="patch_7">
     <path d="M 64.6 108.1845 
L 278.101562 108.1845 
Q 280.101562 108.1845 280.101562 106.1845 
L 280.101562 48.472 
Q 280.101562 46.472 278.101562 46.472 
L 64.6 46.472 
Q 62.6 46.472 62.6 48.472 
L 62.6 106.1845 
Q 62.6 108.1845 64.6 108.1845 
z
" style="fill:#ffffff;opacity:0.8;stroke:#cccccc;stroke-linejoin:miter;"/>
    </g>
    <g id="line2d_15">
     <path d="M 66.6 54.570438 
L 86.6 54.570438 
" style="fill:none;stroke:#1f77b4;stroke-linecap:square;stroke-width:1.5;"/>
    </g>
    <g id="line2d_16"/>
    <g id="text_14">
     <text style="font-family:DejaVu Sans;font-size:10px;font-style:normal;font-weight:normal;text-anchor:start;" transform="rotate(-0, 94.6, 58.070438)" x="94.6" y="58.070438">2014 Add. x+0.1</text>
    </g>
    <g id="line2d_17">
     <path d="M 66.6 69.248563 
L 86.6 69.248563 
" style="fill:none;stroke:#ff7f0e;stroke-linecap:square;stroke-width:1.5;"/>
    </g>
    <g id="line2d_18"/>
    <g id="text_15">
     <text style="font-family:DejaVu Sans;font-size:10px;font-style:normal;font-weight:normal;text-anchor:start;" transform="rotate(-0, 94.6, 72.748563)" x="94.6" y="72.748563">Simulated Mean of 2014 Add. x+0.1</text>
    </g>
    <g id="line2d_19">
     <path d="M 66.6 83.926688 
L 86.6 83.926688 
" style="fill:none;stroke:#2ca02c;stroke-linecap:square;stroke-width:1.5;"/>
    </g>
    <g id="line2d_20"/>
    <g id="text_16">
     <text style="font-family:DejaVu Sans;font-size:10px;font-style:normal;font-weight:normal;text-anchor:start;" transform="rotate(-0, 94.6, 87.426688)" x="94.6" y="87.426688">Simulated Mean of 2016 Add. x+0.1</text>
    </g>
    <g id="line2d_21">
     <path d="M 66.6 98.604813 
L 86.6 98.604813 
" style="fill:none;stroke:#d62728;stroke-linecap:square;stroke-width:1.5;"/>
    </g>
    <g id="line2d_22"/>
    <g id="text_17">
     <text style="font-family:DejaVu Sans;font-size:10px;font-style:normal;font-weight:normal;text-anchor:start;" transform="rotate(-0, 94.6, 102.104813)" x="94.6" y="102.104813">Simulated Mean of 2019 Add. x+0.1</text>
    </g>
   </g>
  </g>
 </g>
 <defs>
  <clipPath id="p53082868c1">
   <rect height="266.112" width="357.12" x="57.6" y="41.472"/>
  </clipPath>
 </defs>
</svg>

<svg height="460.8" viewBox="0 0 460.8 345.6" width="614.4" xmlns="http://www.w3.org/2000/svg" xmlns:xlink="http://www.w3.org/1999/xlink"><defs><style>*{stroke-linecap:butt;stroke-linejoin:round}</style></defs><g id="figure_1"><path d="M0 345.6h460.8V0H0z" fill="#fff" id="patch_1"/><g id="axes_1"><path d="M57.6 307.584h357.12V41.472H57.6z" fill="#fff" id="patch_2"/><g id="matplotlib.axis_1"><g id="xtick_1"><g id="line2d_1"><defs><path d="M0 0v3.5" id="mfa7c7300f9" stroke="#000" stroke-width=".8"/></defs><use x="73.797" xlink:href="#mfa7c7300f9" y="307.584" stroke="#000" stroke-width=".8"/></g><text x="73.797" y="322.182" font-family="DejaVu Sans" font-size="10" font-weight="400" text-anchor="middle" id="text_1">0.0</text></g><g id="xtick_2"><use x="146.038" xlink:href="#mfa7c7300f9" y="307.584" stroke="#000" stroke-width=".8" id="line2d_2"/><text x="146.038" y="322.182" font-family="DejaVu Sans" font-size="10" font-weight="400" text-anchor="middle" id="text_2">0.2</text></g><g id="xtick_3"><use x="218.279" xlink:href="#mfa7c7300f9" y="307.584" stroke="#000" stroke-width=".8" id="line2d_3"/><text x="218.279" y="322.182" font-family="DejaVu Sans" font-size="10" font-weight="400" text-anchor="middle" id="text_3">0.4</text></g><g id="xtick_4"><use x="290.52" xlink:href="#mfa7c7300f9" y="307.584" stroke="#000" stroke-width=".8" id="line2d_4"/><text x="290.52" y="322.182" font-family="DejaVu Sans" font-size="10" font-weight="400" text-anchor="middle" id="text_4">0.6</text></g><g id="xtick_5"><use x="362.76" xlink:href="#mfa7c7300f9" y="307.584" stroke="#000" stroke-width=".8" id="line2d_5"/><text x="362.76" y="322.182" font-family="DejaVu Sans" font-size="10" font-weight="400" text-anchor="middle" id="text_5">0.8</text></g><text x="236.16" y="335.861" font-family="DejaVu Sans" font-size="10" font-weight="400" text-anchor="middle" id="text_6">Input Coin&apos;s Heads Probability (λ)</text></g><g id="matplotlib.axis_2"><g id="ytick_1"><g id="line2d_6"><defs><path d="M0 0h-3.5" id="m0ed9a9dafa" stroke="#000" stroke-width=".8"/></defs><use x="57.6" xlink:href="#m0ed9a9dafa" y="262.984" stroke="#000" stroke-width=".8"/></g><text x="50.6" y="266.783" font-family="DejaVu Sans" font-size="10" font-weight="400" text-anchor="end" id="text_7">0.2</text></g><g id="ytick_2"><use x="57.6" xlink:href="#m0ed9a9dafa" y="210.559" stroke="#000" stroke-width=".8" id="line2d_7"/><text x="50.6" y="214.358" font-family="DejaVu Sans" font-size="10" font-weight="400" text-anchor="end" id="text_8">0.4</text></g><g id="ytick_3"><use x="57.6" xlink:href="#m0ed9a9dafa" y="158.133" stroke="#000" stroke-width=".8" id="line2d_8"/><text x="50.6" y="161.932" font-family="DejaVu Sans" font-size="10" font-weight="400" text-anchor="end" id="text_9">0.6</text></g><g id="ytick_4"><use x="57.6" xlink:href="#m0ed9a9dafa" y="105.708" stroke="#000" stroke-width=".8" id="line2d_9"/><text x="50.6" y="109.507" font-family="DejaVu Sans" font-size="10" font-weight="400" text-anchor="end" id="text_10">0.8</text></g><g id="ytick_5"><use x="57.6" xlink:href="#m0ed9a9dafa" y="53.282" stroke="#000" stroke-width=".8" id="line2d_10"/><text x="50.6" y="57.082" font-family="DejaVu Sans" font-size="10" font-weight="400" text-anchor="end" id="text_11">1.0</text></g><text transform="rotate(-90 28.617 174.528)" x="28.617" y="174.528" font-family="DejaVu Sans" font-size="10" font-weight="400" text-anchor="middle" id="text_12">Simulated Mean / Function Value</text></g><path clip-path="url(#p53082868c1)" d="M73.833 289.17l3.648-2.646 3.647-2.648 3.648-2.647 3.648-2.647 3.648-2.647 3.648-2.648 3.647-2.647 3.648-2.647 3.648-2.647 3.648-2.647 3.648-2.648 3.647-2.647 3.648-2.647 3.648-2.647 3.648-2.648 3.648-2.647 3.647-2.647 3.648-2.647 3.648-2.647 3.648-2.648 3.648-2.647 3.647-2.647 3.648-2.647 3.648-2.648 3.648-2.647 3.648-2.647 3.647-2.647 3.648-2.647 3.648-2.648 3.648-2.647 3.648-2.647 3.647-2.647 3.648-2.648 3.648-2.647 3.648-2.647 3.648-2.647 3.647-2.647 3.648-2.648 3.648-2.647 3.648-2.647 3.648-2.647 3.647-2.648 3.648-2.647 3.648-2.647 3.648-2.647 3.648-2.647 3.648-2.648 3.647-2.647 3.648-2.647 3.648-2.647 3.648-2.648 3.648-2.647 3.647-2.647 3.648-2.647 3.648-2.647 3.648-2.648 3.648-2.647 3.647-2.647 3.648-2.647 3.648-2.648 3.648-2.647 3.648-2.647 3.647-2.647 3.648-2.647 3.648-2.648 3.648-2.647 3.648-2.647 3.647-2.647 3.648-2.648 3.648-2.647 3.648-2.647 3.648-2.647 3.647-2.647 3.648-2.648 3.648-2.647 3.648-2.647 3.648-2.647 3.647-2.648 3.648-2.647 3.648-2.647 3.648-2.647 3.648-2.647 3.647-2.648 3.648-2.647 3.648-2.647 3.648-2.647 3.648-2.648 3.647-2.647 3.648-2.647" fill="none" stroke="#1f77b4" stroke-linecap="square" stroke-width="1.5" id="line2d_11"/><path clip-path="url(#p53082868c1)" d="M73.833 291.294l3.648-6.291 3.647-6.291 3.648 3.67 3.648-3.146 3.648-4.718 3.648 4.718 3.647-5.767 3.648-5.242 3.648-2.622 3.648-8.388 3.648 3.146 3.647-3.67h3.648l3.648-6.29 3.648 2.62 3.648 4.719 3.647-17.825h3.648l3.648-5.243 3.648-2.62 3.648 5.766 3.647-6.815 3.648 3.67 3.648-6.292 3.648-2.097 3.648-12.582 3.647-.524 3.648-.524 3.648 4.718 3.648-12.582 3.648-4.718 3.647 3.67 3.648-6.292 3.648-7.863 3.648 1.572 3.648 12.582 3.647-23.067 3.648 4.719 3.648-.525 3.648-10.485 3.648 2.097 3.647-5.767 3.648 2.622 3.648-5.767 3.648-3.67 3.648 6.291h3.648l3.647-14.155 3.648 1.049 3.648-2.622 3.648 2.097 3.648-3.145h3.647l3.648 4.718 3.648-16.252 3.648 1.573 3.648-7.864 3.647 1.049 3.648-5.243 3.648 2.622 3.648-2.097 3.648-4.719M314.588 119.338l3.648-15.203 3.647 11.01 3.648-6.816m18.24-13.106" fill="none" stroke="#ff7f0e" stroke-linecap="square" stroke-width="1.5" id="line2d_12"/><path clip-path="url(#p53082868c1)" d="M73.833 290.245l3.648 5.243 3.647-9.437 3.648-9.436 3.648 3.145 3.648 5.243 3.648-18.349h3.647l3.648-4.194 3.648 3.67 3.648-5.243 3.648 2.097 3.647-4.194 3.648-10.485 3.648-1.573 3.648 3.67 3.648-2.097 3.647-1.048 3.648.524 3.648-14.68 3.648-2.096 3.648 1.572 3.647-3.145 3.648-6.291 3.648 8.388 3.648-6.291 3.648 6.815 3.647-17.3 3.648-2.622 3.648-.524 3.648 3.67 3.648-4.718 3.647-8.913 3.648 4.194 3.648-16.776 3.648 20.97 3.648-14.154 3.647-6.291 3.648-19.398 3.648 16.776 3.648 5.767 3.648-8.912 3.647-4.719 3.648-4.718 3.648.524h3.648l3.648-8.388 3.648-2.62 3.647 8.911 3.648-16.776 3.648 6.291 3.648-11.533 3.648 1.048 3.647-14.679 3.648 2.097 3.648 7.34 3.648-1.573 3.648-2.621 3.647-7.864 3.648-1.573 3.648 3.67 3.648-14.155 3.648 2.621h3.647m18.239-16.776" fill="none" stroke="#2ca02c" stroke-linecap="square" stroke-width="1.5" id="line2d_13"/><path clip-path="url(#p53082868c1)" d="M157.73199999999997 221.56799999999998l3.648 9.96 3.648-11.533m7.295 2.097l3.648-14.679m7.296 6.291l3.648 1.049 3.647-8.388 3.648-6.816 3.648 3.146 3.648-20.446 3.648 2.621 3.647 4.194m7.296-4.718l3.648 2.621m18.239-13.63l3.648-1.049m10.943-17.825" fill="none" stroke="#d62728" stroke-linecap="square" stroke-width="1.5" id="line2d_14"/><path d="M57.6 307.584V41.472" fill="none" stroke="#000" stroke-linecap="square" stroke-width=".8" id="patch_3"/><path d="M414.72 307.584V41.472" fill="none" stroke="#000" stroke-linecap="square" stroke-width=".8" id="patch_4"/><path d="M57.6 307.584h357.12" fill="none" stroke="#000" stroke-linecap="square" stroke-width=".8" id="patch_5"/><path d="M57.6 41.472h357.12" fill="none" stroke="#000" stroke-linecap="square" stroke-width=".8" id="patch_6"/><text x="236.16" y="35.472" font-family="DejaVu Sans" font-size="12" font-weight="400" text-anchor="middle" id="text_13">Expected Value in 2014 Add. x+0.1 Algorithm</text><g id="legend_1"><path d="M64.6 108.184h213.502q2 0 2-2V48.472q0-2-2-2H64.6q-2 0-2 2v57.712q0 2 2 2z" fill="#fff" opacity=".8" stroke="#ccc" id="patch_7"/><path d="M66.6 54.57h20" fill="none" stroke="#1f77b4" stroke-linecap="square" stroke-width="1.5" id="line2d_15"/><text x="94.6" y="58.07" font-family="DejaVu Sans" font-size="10" font-weight="400" id="text_14">2014 Add. x+0.1</text><path d="M66.6 69.249h20" fill="none" stroke="#ff7f0e" stroke-linecap="square" stroke-width="1.5" id="line2d_17"/><text x="94.6" y="72.749" font-family="DejaVu Sans" font-size="10" font-weight="400" id="text_15">Simulated Mean of 2014 Add. x+0.1</text><path d="M66.6 83.927h20" fill="none" stroke="#2ca02c" stroke-linecap="square" stroke-width="1.5" id="line2d_19"/><text x="94.6" y="87.427" font-family="DejaVu Sans" font-size="10" font-weight="400" id="text_16">Simulated Mean of 2016 Add. x+0.1</text><path d="M66.6 98.605h20" fill="none" stroke="#d62728" stroke-linecap="square" stroke-width="1.5" id="line2d_21"/><text x="94.6" y="102.105" font-family="DejaVu Sans" font-size="10" font-weight="400" id="text_17">Simulated Mean of 2019 Add. x+0.1</text></g></g></g><defs><clipPath id="p53082868c1"><path d="M57.6 41.472h357.12v266.112H57.6z"/></clipPath></defs></svg>
